X: 1659
T: the Handy Man   #2
R: hornpipe, reel
%S: s:4 b:16(4+4+4+4)
B: O'Neill's 1850 #1659
M: 2/4
L: 1/16
K: Bb
F2 \
| B2Bc d2cB | Bdfg f2(df) |1,3 bfdf gfdB | cBcd cedc :|2,4 gbfd cBcd | B2d2 B2 :|
|: (BA) | G2{A}-G^F G2{A}-G^F | G=FGA B2Bc | d2{e}-d^c d2{e}-d^c | d=cBd f2(Bd) |
| fgfd f2df | gag^f g2bg | fdBd cedc | B2d2 B2 :|
